!!!COM:	Bach, Johann Sebastian
!!!CDT:	1685/02/21/-1750/07/28/
!!!OTL@@DE:	Gib dich zufrieden und sei stille
!!!SCT:	BWV 315
!!!PC#:	271
!!!AGN:	chorale
**kern	**kern	**kern	**kern
*ICvox	*ICvox	*ICvox	*ICvox
*Ibass	*Itenor	*Ialto	*Isoprn
*I"Bass	*I"Tenor	*I"Alto	*I"Soprano
*>[A,A,B]	*>[A,A,B]	*>[A,A,B]	*>[A,A,B]
*>norep[A,B]	*>norep[A,B]	*>norep[A,B]	*>norep[A,B]
*>A	*>A	*>A	*>A
*clefF4	*clefGv2	*clefG2	*clefG2
*k[f#]	*k[f#]	*k[f#]	*k[f#]
*e:	*e:	*e:	*e:
*M4/4	*M4/4	*M4/4	*M4/4
*met(c)	*met(c)	*met(c)	*met(c)
*MM100	*MM100	*MM100	*MM100
4E	4G	4e	4b
=1	=1	=1	=1
8EL	4B	4e	4g
8D#J	.	.	.
8EL	8cL	8f#L	8aL
8D#J	8F#J	16gL	16bL
.	.	16aJJ	16ccJJ
8EL	8GL	8gL	4.b
8F#J	8AJ	8d#J	.
8GL	8BL	8eL	.
8AJ	8cJ	8f#J	8a
=2	=2	=2	=2
4B	4B	8f#L	4g
.	.	8eJ	.
4BB	4B	8eL	8f#L
.	.	8d#J	16gL
.	.	.	16aJJ
2E	8BL	4.e	4.g
.	8GJ	.	.
.	4A	.	.
.	.	8d#	8f#
=3	=3	=3	=3
2E;	2G;	2e;	2e;
4.E	8GL	4.g	4cc
.	8AJ	.	.
.	4B	.	4b
8D	.	8f#	.
=4	=4	=4	=4
8C	8BL	8eL	4ee
4c	8AJ	8f#J	.
.	8AL	8f#L	4dd
8B	8BJ	8gJ	.
4A	4c	4f#	8f#L
.	.	.	8ccJ
4G	4d	4g	8bL
.	.	.	8aJ
=5	=5	=5	=5
4C	4e	4g	2a
4D	8dL	4f#	.
.	8cJ	.	.
4GG;	4B;	4d;	4g;
=:|!	=:|!	=:|!	=:|!
*>B	*>B	*>B	*>B
4G	4d	4g	4b
=6	=6	=6	=6
8F#L	4d	8aL	4a
8DJ	.	8f#J	.
4G	8dL	8gL	8bL
.	8c#J	8eJ	8gJ
8DL	4d	4f#	4a
8EJ	.	.	.
8DL	8G#L	4e	8bL
8CJ	8AJ	.	8ccnXJ
=7	=7	=7	=7
4BB	8AL	4d	4dd
.	8BJ	.	.
4E	4G#	4e	8ccL
.	.	.	8bJ
4A	8AL	8eL	8ccL
.	8BJ	8dJ	8bJ
4AA;	4c;	4e;	4a;
=8	=8	=8	=8
4r	4ry	4ry	4r
4A	4c	4e	4cc
8BL	4.B	8d#L	4f#
8cJ	.	8eJ	.
8BL	.	4f#	8eeL
8AJ	8c	.	8dd#XJ
=9	=9	=9	=9
8GL	8BL	8eL	8eeL
8F#J	8AJ	8f#J	8ddnXJ
8EL	8GL	8gL	8ccL
8DJ	8G#J	8fJ	8bJ
8CL	8AL	4e	8aL
8BBJ	8BJ	.	8ggJ
4AA	4c	8aL	8ff#L
.	.	16bL	8eeJ
.	.	16ccJJ	.
=10	=10	=10	=10
4BB	4B	8f#XL	8dd#L
.	.	8eJ	8cc#J
4BB;	4F#;	4d#X;	4b;
4r	4ry	4ry	4r
4G#	4B	4e	4ee
=11	=11	=11	=11
8AL	8AL	4.e	8ddnXL
8AAJ	8BJ	.	8ccnXJ
[4A	4c	.	8bL
.	.	8f#	8aJ
8AL]	8F#L	8d#L	8bL
8F#J	8AJ	8f#J	8d#J
8GnXL	8BL	8eL	8eL
8CJ	8AJ	8eJ	8aJ
=12	=12	=12	=12
8BBL	4B	4e	4g
8AAJ	.	.	.
4BB	8AL	4d#	8f#L
.	8GJ	.	8eJ
4E;	4G;	4B;	4e;
==	==	==	==
*-	*-	*-	*-
!!!hum2abc: -Q ''
!!!title: @{PC#}. @{OTL@@DE}
!!!YOR1: 371 vierstimmige Choralges&auml;nge von Johann Sebastian Bach, 
!!!YOR2: 4th ed. by Alfred D&ouml;rffel (Leipzig: Breitkopf und H&auml;rtel, 
!!!YOR2: c.1875). 178 pp. Plate "V.A.10".  reprint: J.S. Bach, 371 Four-Part 
!!!YOR4: Chorales (New York: Associated Music Publishers, Inc., c.1940).
!!!SMS: B&H, 4th ed, Alfred D&ouml;rffel, c.1875, plate V.A.10
!!!EED:  Craig Stuart Sapp
!!!EEV:  2009/05/22
